images/background/1.svg

<?xml version="1.0" encoding="UTF-8" standalone="no"?>
<svg width="4120px" height="1243px" viewBox="0 0 4120 1243" version="1.1" xmlns="http://www.w3.org/2000/svg" xmlns:xlink="http://www.w3.org/1999/xlink" xmlns:sketch="http://www.bohemiancoding.com/sketch/ns">
    <!-- Generator: Sketch 3.4 (15575) - http://www.bohemiancoding.com/sketch -->
    <title>1</title>
    <desc>Created with Sketch.</desc>
    <defs></defs>
    <g id="Page-1" stroke="none" stroke-width="1" fill="none" fill-rule="evenodd" sketch:type="MSPage">
        <g id="cityscape-test" sketch:type="MSLayerGroup" transform="translate(0.000000, -1500.000000)" fill="#3F6964">
            <g id="1" transform="translate(0.000000, 1500.000000)" sketch:type="MSShapeGroup">
                <path d="M2159.62813,556 L2159.65801,547 L1977,547 L1977,419 L1829,419 L1829,198 L1864,198 L1864,168 C1864,168 1873,142 1922,142 C1971,142 1980,168 1980,168 L1980,198 L2017,198 L2017,379 L2135,379 L2135,398 L2165,398 L2165,442.888889 L2169,442 L2174,445 L2178,444 L2188,449 L2191,446 L2195,451 L2198,456 L2207,457 L2215,457 L2223,458 L2224,461 L2236,461 L2240,461 L2239,456 L2247,447 L2253,447 L2262,450 L2267,450 L2273,450 L2273,447 L2278,446 L2284,438 L2291,440 L2296,440 L2296,424 L2309,421.592593 L2309,361 L2327,361 L2327,347 L2339,347 L2339,351 L2358,351 L2358,310 L2516,310 L2516,402 L2659,402 L2659,459 L2496,459 L2496,406 L2425,406 L2425,556 L2719,556 L2719,206 L2730,203 L2730,556 L2730,556 L2730,202 L2768,202 L2768,147 L2790,139 L2790,202 L2790,202 L2790,139 L2958,139 L2958,462 L2863,462 L2863,556 L4120,556 L4120,1243 L0,1243 L0,556 L1295.13049,556 C1294.28447,552.823963 1294,551 1294,551 L1368.24786,478 L1334,478 L1334,278 L1337,278 L1337,232 L1366,232 L1366,260 L1403,260 L1403,278 L1421,278 L1421,434.761905 L1434,436 L1440,441 L1453,435 L1461,439 L1467,444 L1473,444 L1482,450 L1491,456 L1498,468 L1504,486 L1513,489 L1521,488 L1514,480 L1521,477 L1522,472 L1528,469 L1532,459 L1540,462 L1547,460 L1566,457.521739 L1566,312 L1591,312 L1591,300 L1621,300 L1621,312 L1631.94737,312 L1629,298 L1637,297 L1639,293 L1651,293 L1653,297 L1661,298 L1658.78947,312 L1678,312 L1678,295 L1701,295 L1701,307 L1722,307 L1722,312 L1724,312 L1724,432 L1801,432 L1801,506 L1724,506 L1724,508 L1585.11111,508 L1586,511 L1635,551 C1635,551 1635,552.823963 1634.64933,556 L2159.62813,556 Z M228,446 L139,446 L139,432 L112,432 L112,386 L118.082763,392.082763 L127,328 L127,312 L131,312 L131,328 L141,392 L148,385 L148,405 L249,405 L249,436 L259,436 L259,401 L267.181818,401 L289,381 L310.818182,401 L320,401 L320,436 L343,436 L343,494 L228,494 L228,446 Z M3122,346 L3122,335.5 L3122,325 L3111,328 L3111,346 L3091,346 L3091,462 L3210,462 L3210,346 L3172,346 L3172,325 L3122,325 L3122,335.5 Z M3620,286 L3620,300 L3616,300 L3619.83545,308.62977 C3605.44024,313.157895 3595,326.609724 3595,342.5 C3595,344.578287 3595.17859,346.40137 3595.52126,348 L3586,348 L3595,360 L3666,360 L3675,348 L3665.47874,348 C3665.82141,346.40137 3666,344.578287 3666,342.5 C3666,326.309033 3655.16091,312.649672 3640.34314,308.382344 L3645,300 L3640,300 L3640,286 L3640.65517,286 L3646,278 L3641.37696,278 L3632,265.042695 L3632,228 L3629,228 L3629,264.927543 L3618.67968,278 L3615,278 L3619.27586,286 L3620,286 Z M3376,275 L3338,275 L3338,474 L3482,474 L3482,275 L3433,275 L3433,255 L3385,255 L3385,265 L3385,255 L3376,258 L3376,275 Z M3731,418 L3731,528 L3509,528 L3509,529 L3489,529 L3489,423.860927 L3498,403 L3498,402 L3579,402 L3579,394 L3595,394 L3595,360 L3666,360 L3666,394 L3684,394 L3684,402 L3713,402 L3713,312 L3731,308 L3731,418 Z M639,450 L651,450 L651,438 L726,438 L726,450 L765,450 L765,508 L726,508 L726,513 L651,513 L651,508 L639,508 L639,510 L595,510 L595,508 L583,508 L583,450 L595,450 L595,438 L639,438 L639,450 Z M3779,290 L3806,290 L3806,308 L3779,308 L3779,290 Z M3767,293 L3779,290 L3779,308 L3767,308 L3767,293 Z M3731,308 L3833,308 L3833,424 L3731,424 L3731,308 Z M3326,278 L3338,275 L3338,471 L3326,474 L3326,278 Z M3077,349 L3091,346 L3091,462 L3077,465 L3077,349 Z M49,367 L53,367 L53,405 L49,405 L49,367 Z" id="Rectangle-43"></path>
                <path d="M3215.51118,1.81716305 L3208.51118,58.817163 L3208.50031,58.9697032 L3204.50031,256.969703 L3200.50034,443.967922 C3200.48236,444.808713 3201.15902,445.5 3202,445.5 L3224,445.5 C3224.83772,445.5 3225.51308,444.813861 3225.49981,443.976247 L3218.49981,1.97624732 C3218.47026,0.109959269 3215.7387,-0.0354412315 3215.51118,1.81716305 L3215.51118,1.81716305 Z M3218.48882,2.18283695 L3215.50019,2.02375268 L3222.50019,444.023753 L3224,442.5 L3202,442.5 L3203.49966,444.032078 L3207.49966,257.032078 L3211.49969,59.0302968 L3211.48882,59.182837 L3218.48882,2.18283695 L3218.48882,2.18283695 Z" id="Shape"></path>
                <path d="M3203,387 L3250,387 L3250,390 L3203,390 L3203,387 Z M3203,343 L3248,343 L3248,346 L3203,346 L3203,343 Z M3204,299 L3245,299 L3245,302 L3204,302 L3204,299 Z M3205,255 L3243,255 L3243,258 L3205,258 L3205,255 Z M3207,167 L3237,167 L3237,170 L3207,170 L3207,167 Z M3209,123 L3233,123 L3233,126 L3209,126 L3209,123 Z M3210,57 L3231,57 L3231,60 L3210,60 L3210,57 Z M3210,68 L3231,68 L3231,71 L3210,71 L3210,68 Z M3210,79 L3231,79 L3231,82 L3210,82 L3210,79 Z M3209,90 L3233,90 L3233,93 L3209,93 L3209,90 Z M3209,101 L3233,101 L3233,104 L3209,104 L3209,101 Z M3209,112 L3233,112 L3233,115 L3209,115 L3209,112 Z M3209,134 L3233,134 L3233,137 L3209,137 L3209,134 Z M3209,145 L3234,145 L3234,148 L3209,148 L3209,145 Z M3207,156 L3237,156 L3237,159 L3207,159 L3207,156 Z M3207,189 L3237,189 L3237,192 L3207,192 L3207,189 Z M3206,200 L3240,200 L3240,203 L3206,203 L3206,200 Z M3206,211 L3240,211 L3240,214 L3206,214 L3206,211 Z M3206,222 L3240,222 L3240,225 L3206,225 L3206,222 Z M3206,233 L3240,233 L3240,236 L3206,236 L3206,233 Z M3206,244 L3242,244 L3242,247 L3206,247 L3206,244 Z M3207,178 L3237,178 L3237,181 L3207,181 L3207,178 Z M3210,46 L3228,46 L3228,49 L3210,49 L3210,46 Z M3205,277 L3243,277 L3243,280 L3205,280 L3205,277 Z M3204,321 L3247,321 L3247,324 L3204,324 L3204,321 Z M3203,365 L3248,365 L3248,368 L3203,368 L3203,365 Z M3203,410 L3250,410 L3250,413 L3203,413 L3203,410 Z M3205,266 L3243,266 L3243,269 L3205,269 L3205,266 Z M3205,288 L3243,288 L3243,291 L3205,291 L3205,288 Z M3204,310 L3247,310 L3247,313 L3204,313 L3204,310 Z M3203,332 L3248,332 L3248,335 L3203,335 L3203,332 Z M3203,354 L3248,354 L3248,357 L3203,357 L3203,354 Z M3203,376 L3250,376 L3250,379 L3203,379 L3203,376 Z M3203,398 L3250,398 L3250,401 L3203,401 L3203,398 Z" id="Rectangle-92"></path>
                <path d="M3215.53755,2.33354051 L3228.53755,59.3335405 L3228.50269,59.0898384 L3240.50269,259.089838 L3251.50282,438.092005 L3252.69609,436.531109 L3223.69609,442.531109 L3225.49981,443.976247 L3218.49981,1.97624732 L3215.53755,2.33354051 L3215.53755,2.33354051 Z M3218.46245,1.66645949 C3218.06181,-0.090183256 3215.47166,0.222228211 3215.50019,2.02375268 L3222.50019,444.023753 C3222.51509,444.964572 3223.38249,445.65953 3224.30391,445.468891 L3253.30391,439.468891 C3254.03449,439.317737 3254.54294,438.652641 3254.49718,437.907995 L3243.49718,258.907995 L3231.49731,58.9101616 C3231.49238,58.8281096 3231.48072,58.7466011 3231.46245,58.6664595 L3218.46245,1.66645949 L3218.46245,1.66645949 Z" id="Shape"></path>
            </g>
        </g>
    </g>
</svg>

<svg width="4120" height="1243" viewBox="0 0 4120 1243" xmlns="http://www.w3.org/2000/svg"><title>1</title><g fill="#3F6964" fill-rule="evenodd"><path d="M2159.628 556l.03-9H1977V419h-148V198h35v-30s9-26 58-26 58 26 58 26v30h37v181h118v19h30v44.89l4-.89 5 3 4-1 10 5 3-3 4 5 3 5 9 1h8l8 1 1 3h16l-1-5 8-9h6l9 3h11v-3l5-1 6-8 7 2h5v-16l13-2.407V361h18v-14h12v4h19v-41h158v92h143v57h-163v-53h-71v150h294V206l11-3v353-354h38v-55l22-8v63-63h168v323h-95v94h1257v687H0V556h1295.13c-.846-3.176-1.13-5-1.13-5l74.248-73H1334V278h3v-46h29v28h37v18h18v156.762l13 1.238 6 5 13-6 8 4 6 5h6l9 6 9 6 7 12 6 18 9 3 8-1-7-8 7-3 1-5 6-3 4-10 8 3 7-2 19-2.478V312h25v-12h30v12h10.947L1629 298l8-1 2-4h12l2 4 8 1-2.21 14H1678v-17h23v12h21v5h2v120h77v74h-77v2h-138.89l.89 3 49 40s0 1.824-.35 5h524.978zM228 446h-89v-14h-27v-46l6.083 6.083L127 328v-16h4v16l10 64 7-7v20h101v31h10v-35h8.182L289 381l21.818 20H320v35h23v58H228v-48zm2894-100v-21l-11 3v18h-20v116h119V346h-38v-21h-50v10.5zm498-60v14h-4l3.835 8.63C3605.44 313.158 3595 326.61 3595 342.5c0 2.078.18 3.9.52 5.5H3586l9 12h71l9-12h-9.52c.34-1.6.52-3.422.52-5.5 0-16.19-10.84-29.85-25.657-34.118L3645 300h-5v-14h.655l5.345-8h-4.623L3632 265.043V228h-3v36.928L3618.68 278H3615l4.276 8h.724zm-244-11h-38v199h144V275h-49v-20h-48v10-10l-9 3v17zm355 143v110h-222v1h-20V423.86l9-20.86v-1h81v-8h16v-34h71v34h18v8h29v-90l18-4v110zM639 450h12v-12h75v12h39v58h-39v5h-75v-5h-12v2h-44v-2h-12v-58h12v-12h44v12zm3140-160h27v18h-27v-18zm-12 3l12-3v18h-12v-15zm-36 15h102v116h-102V308zm-405-30l12-3v196l-12 3V278zm-249 71l14-3v116l-14 3V349zM49 367h4v38h-4v-38z"/><path d="M3215.51 1.817l-7 57-.01.153-4 198-4 186.998a1.5 1.5 0 0 0 1.5 1.532h22a1.5 1.5 0 0 0 1.5-1.524l-7-442c-.03-1.866-2.76-2.01-2.99-.16zm2.98.366l-2.99-.16 7 442 1.5-1.523h-22l1.5 1.532 4-187 4-198.002-.01.153 7-57z"/><path d="M3203 387h47v3h-47v-3zm0-44h45v3h-45v-3zm1-44h41v3h-41v-3zm1-44h38v3h-38v-3zm2-88h30v3h-30v-3zm2-44h24v3h-24v-3zm1-66h21v3h-21v-3zm0 11h21v3h-21v-3zm0 11h21v3h-21v-3zm-1 11h24v3h-24v-3zm0 11h24v3h-24v-3zm0 11h24v3h-24v-3zm0 22h24v3h-24v-3zm0 11h25v3h-25v-3zm-2 11h30v3h-30v-3zm0 33h30v3h-30v-3zm-1 11h34v3h-34v-3zm0 11h34v3h-34v-3zm0 11h34v3h-34v-3zm0 11h34v3h-34v-3zm0 11h36v3h-36v-3zm1-66h30v3h-30v-3zm3-132h18v3h-18v-3zm-5 231h38v3h-38v-3zm-1 44h43v3h-43v-3zm-1 44h45v3h-45v-3zm0 45h47v3h-47v-3zm2-144h38v3h-38v-3zm0 22h38v3h-38v-3zm-1 22h43v3h-43v-3zm-1 22h45v3h-45v-3zm0 22h45v3h-45v-3zm0 22h47v3h-47v-3zm0 22h47v3h-47v-3z"/><path d="M3215.538 2.334l13 57-.035-.244 12 200 11 179.002 1.193-1.56-29 6 1.804 1.444-7-442-2.962.358zm2.924-.668c-.4-1.756-2.99-1.444-2.962.358l7 442a1.5 1.5 0 0 0 1.804 1.445l29-6a1.5 1.5 0 0 0 1.193-1.562l-11-179-12-199.998a1.502 1.502 0 0 0-.035-.244l-13-57z"/></g></svg>
